X:1
T:THE MONTH OF MAY
M:2/4
Q:1/4=120
K:A
e8|c2c2B2E2|A4D2e2|c2c2B2E2|A6E2|A2A2B2c2|
d4c2B2|e2e2G2G2|A6E2|A2A2B2c2|d4c2B2|e2e2G2G2|
A7/2||
